**kern	**kern	**dynam
*part1	*part1	*part1
*staff2	*staff1	*
*I"Piano	*	*
*clefF4	*clefG2	*
*k[f#]	*k[f#]	*
=1	=1	=1
2AA_ 2Fn_ 2A_	8aL	.
.	8g	.
.	8.fn	.
.	16cJk	.
=	=	=
2AA] 2F] 2A]	2fn)	.
=	=	=
*^	*^	*
8GL	8BBL	8bL	8BL 8e	p
8G	8BB	8b	8B 8e	.
8G	8BB	8b	8B 8e	.
8GJ	8BBJ	8bJ	8BJ 8e	.
=	=	=	=	=
8GL	8AAL	8bL	8cL 8e	.
8G	8AA	8b	8c 8e	.
8G	8AA	8a	8c 8e	.
8GJ	8AAJ	8aJ	8cJ 8e	.
=	=	=	=	=
8GL	8DL	8aL	8cL 8e	.
8G	8D	8a	8c 8e	.
8G	8D	8a	8c 8e-X	.
8GJ	8DJ	8aJ	8cJ 8e-	.
=	=	=	=	=
8GL	8CL	8aL	8cL 8e-X	.
8G	8C	8a	8c 8e-	.
8F#	8C	8a	8c 8e-	.
8F#J	8CJ	8aJ	8cJ 8e-	.
=	=	=	=	=
8F#L	8BBL	8aL	8dL	.
8F#	8BB	8a	8d	.
8G	8BB	8g	8d	.
8GJ	8BBJ	8gJ	8dJ	.
*v	*v	*	*	*
*	*v	*v	*
=	=	=
*-	*-	*-
!!!system-decoration: {(s1,s2)}
